images/spool-right.svg

<svg xmlns="http://www.w3.org/2000/svg" width="130" height="130" viewBox="-478 278 130 130" enable-background="new -478 278 130 130"><style type="text/css">.st0{fill:#D1D1D1;stroke:#455864;stroke-width:2;stroke-miterlimit:10;}</style><path id="spool-right" class="st0" d="M-413 302.8c-22.2 0-40.2 18-40.2 40.2s18 40.2 40.2 40.2 40.2-18 40.2-40.2-18-40.2-40.2-40.2zm-5.1 16.1c0-2.8 2.3-5.1 5.1-5.1 1.4 0 2.7.6 3.6 1.5.9.9 1.5 2.2 1.5 3.6v5.1h-10.2v-5.1zm10.2 48.2c0 2.8-2.3 5.1-5.1 5.1-1.4 0-2.7-.6-3.6-1.5-.9-.9-1.5-2.2-1.5-3.6v-5.1h10.2v5.1zm-5.1-16.1c-4.4 0-7.9-3.5-7.9-7.9s3.6-7.9 7.9-7.9c4.3 0 7.9 3.5 7.9 7.9s-3.5 7.9-7.9 7.9z"/></svg>

<?xml version="1.0" encoding="utf-8"?>
<!-- Generator: Adobe Illustrator 19.1.0, SVG Export Plug-In . SVG Version: 6.00 Build 0)  -->
<!DOCTYPE svg PUBLIC "-//W3C//DTD SVG 1.1//EN" "http://www.w3.org/Graphics/SVG/1.1/DTD/svg11.dtd">
<svg version="1.1" id="Layer_1" xmlns="http://www.w3.org/2000/svg" xmlns:xlink="http://www.w3.org/1999/xlink" x="0px" y="0px"
	 width="130px" height="130px" viewBox="-478 278 130 130" style="enable-background:new -478 278 130 130;" xml:space="preserve">
<style type="text/css">
	.st0{fill:#D1D1D1;stroke:#455864;stroke-width:2;stroke-miterlimit:10;}
</style>
<g id="Layer_1_1_">
</g>
<g id="vintage-computer">
	<path id="spool-right" class="st0" d="M-413,302.8c-22.2,0-40.2,18-40.2,40.2s18,40.2,40.2,40.2s40.2-18,40.2-40.2
		S-390.8,302.8-413,302.8z M-418.1,318.9c0-2.8,2.3-5.1,5.1-5.1c1.4,0,2.7,0.6,3.6,1.5c0.9,0.9,1.5,2.2,1.5,3.6v5.1h-10.2V318.9z
		 M-407.9,367.1c0,2.8-2.3,5.1-5.1,5.1c-1.4,0-2.7-0.6-3.6-1.5c-0.9-0.9-1.5-2.2-1.5-3.6V362h10.2V367.1z M-413,351
		c-4.4,0-7.9-3.5-7.9-7.9c0-4.4,3.6-7.9,7.9-7.9c4.3,0,7.9,3.5,7.9,7.9C-405.1,347.5-408.6,351-413,351z"/>
</g>
</svg>
